src/frontend/src/images/icon-search.svg

<?xml version="1.0" encoding="UTF-8"?>
<svg width="20px" height="21px" viewBox="0 0 20 21" version="1.1" xmlns="http://www.w3.org/2000/svg" xmlns:xlink="http://www.w3.org/1999/xlink">
    <!-- Generator: sketchtool 41.2 (35397) - http://www.bohemiancoding.com/sketch -->
    <title>DDF75414-0757-4D23-B63B-3DCE6E2B39B3</title>
    <desc>Created with sketchtool.</desc>
    <defs></defs>
    <g id="MVP" stroke="none" stroke-width="1" fill="none" fill-rule="evenodd">
        <g id="SkillWill_Home_Desktop_Skills_Detail_1" transform="translate(-1108.000000, -494.000000)" fill="#ffffff">
            <g id="Icon_Search@2x-Copy" transform="translate(1108.000000, 494.000000)">
                <path d="M9.10955094,18.4268388 C14.1357578,18.4268388 18.2191019,14.3069476 18.2191019,9.21341939 C18.2191019,4.1198912 14.1357578,0 9.10955094,0 C4.08334408,0 0,4.1198912 0,9.21341939 C0,14.3069476 4.08334408,18.4268388 9.10955094,18.4268388 L9.10955094,18.4268388 Z M9.10955094,15.9861034 C5.38519677,15.9861034 2.37480955,12.9487723 2.37480955,9.21341939 C2.37480955,5.47806649 5.38519677,2.44073542 9.10955094,2.44073542 C12.8339051,2.44073542 15.8442923,5.47806649 15.8442923,9.21341939 C15.8442923,12.9487723 12.8339051,15.9861034 9.10955094,15.9861034 Z M14.4010393,16.7218998 L17.9673571,20.4367516 C18.427945,20.9165226 19.1797512,20.9217083 19.6465632,20.4483343 C20.1133752,19.9749603 20.1184209,19.2022836 19.657833,18.7225126 L16.0915153,15.0076607 C15.6309274,14.5278898 14.8791212,14.522704 14.4123091,14.9960781 C13.9454971,15.4694521 13.9404514,16.2421288 14.4010393,16.7218998 Z" id="Combined-Shape"></path>
            </g>
        </g>
    </g>
</svg>

<svg width="20" height="21" viewBox="0 0 20 21" xmlns="http://www.w3.org/2000/svg"><path d="M9.11 18.427c5.026 0 9.11-4.12 9.11-9.214C18.22 4.12 14.135 0 9.11 0 4.083 0 0 4.12 0 9.213c0 5.094 4.083 9.214 9.11 9.214zm0-2.44c-3.725 0-6.735-3.038-6.735-6.774 0-3.735 3.01-6.772 6.735-6.772 3.724 0 6.734 3.037 6.734 6.772 0 3.736-3.01 6.773-6.734 6.773zm5.291.735l3.566 3.715c.46.48 1.213.485 1.68.011a1.244 1.244 0 0 0 .01-1.725l-3.565-3.715a1.165 1.165 0 0 0-1.68-.012 1.244 1.244 0 0 0-.011 1.726z" fill="#fff" fill-rule="evenodd"/></svg>
